Gruvbox-Plus-Dark/actions/16/snap-nodes-smooth.svg

<svg xmlns="http://www.w3.org/2000/svg" width="16" height="16" viewBox="0 0 16 16">
 <defs>
  <style id="current-color-scheme" type="text/css">
   .ColorScheme-Text { color:#ebdbb2; } .ColorScheme-Highlight { color:#458588; }
  </style>
 </defs>
 <path style="fill:currentColor" class="ColorScheme-Text" d="M 1.0195312 1.5 A 0.50005 0.50005 0 0 0 0.96875 1.5019531 A 0.50005 0.50005 0 0 0 0.93554688 2.4980469 C 0.93554688 2.4980469 3.5980531 2.8748925 6.0019531 4.0078125 L 6.0019531 6.0019531 L 8.8085938 6.0019531 C 9.3046338 6.5797831 9.6577056 7.2386406 9.7910156 7.9941406 C 10.039996 9.4050406 9.5586481 11.255353 7.6113281 13.689453 A 0.50005 0.50005 0 0 0 8.0019531 14.501953 C 11.620953 14.501953 13.572309 13.167363 14.537109 11.789062 C 15.501909 10.410763 15.501953 9.0019531 15.501953 9.0019531 A 0.50005 0.50005 0 1 0 14.501953 9.0019531 C 14.501953 9.0019531 14.501997 10.093144 13.716797 11.214844 C 13.031447 12.193914 11.535962 13.076859 8.9765625 13.318359 C 10.408062 11.212759 11.044891 9.3491656 10.775391 7.8222656 C 10.556791 6.5835656 9.8788631 5.5820906 9.0019531 4.7753906 L 9.0019531 3.0019531 L 6.203125 3.0019531 C 3.670125 1.8505531 1.0683594 1.5058594 1.0683594 1.5058594 A 0.50005 0.50005 0 0 0 1.0195312 1.5 z"/>
</svg>

<svg width="16" height="16" version="1.1" viewBox="0 0 16 16" xmlns="http://www.w3.org/2000/svg">
  <defs>
    <style type="text/css">.ColorScheme-Text { color:#ebdbb2; } .ColorScheme-Highlight { color:#458588; }</style>
  </defs>
  <path class="ColorScheme-Text" d="m1.022 1.499a0.5 0.5 0 0 0-0.05078 0.00195 0.5 0.5 0 0 0-0.0332 0.9961s2.308 0.3277 4.566 1.287v2.717h3.684c0.2971 0.4511 0.5091 0.946 0.6055 1.492 0.249 1.411-0.2324 3.261-2.18 5.695a0.5 0.5 0 0 0 0.3906 0.8125c3.619 0 5.57-1.335 6.535-2.713 0.9648-1.378 0.9648-2.787 0.9648-2.787a0.5 0.5 0 1 0-1 0s4.3e-5 1.091-0.7852 2.213c-0.6854 0.9791-2.181 1.862-4.74 2.104 1.431-2.106 2.068-3.969 1.799-5.496-0.1746-0.9896-0.6452-1.825-1.273-2.533v-2.787h-4v0.2031c-2.29-0.9131-4.434-1.199-4.434-1.199a0.5 0.5 0 0 0-0.04883-0.00586z" fill="currentColor"/>
</svg>
